X: 1
T: Pass Me Not, O Gentle Savior
C: Words: Fanny J. Crosby, 1868.
C: Music: 'Pass Me Not O Gentle Savior' William Howard Doane, 1870.  Setting: "The Coronation", 1872.
C: copyright: public domain.  This score is a part of the Open Hymnal Project, 2011 Revision.
S: Music source: "The Coronation" 1872 page 269.
M: 4/4 % time signature
L: 1/4 % default length
%%staves (S1V1 S1V2) | (S2V1 S2V2) 
V: S1V1 clef=treble 
%%MIDI beat 127 125 110 1
V: S1V2 
%%MIDI beat 127 125 110 1
V: S2V1 clef=bass 
%%MIDI beat 127 125 110 1
V: S2V2 
%%MIDI beat 127 125 110 1
K: Ab % key signature
%
%%MIDI program 1 0 % Piano 1
%%MIDI program 2 0 % Piano 1
%%MIDI program 3 0 % Piano 1
%%MIDI program 4 0 % Piano 1
%
% 1
[V: S1V1] [Q:1/4=100] c3/2 B/ A3/4 G/4 A3/4 F/4 | E2 A2 | B3/2 B/ A B | c3 z |
w: 1.~Pass me not, O gen- tle Sa- vior, Hear my hum- ble cry; 
w: 2.~Let me at Thy throne of mer- cy Find a sweet re- lief, 
w: 3,~Trust- ing on- ly in Thy me- rit, Would I seek Thy face; 
w: 4.~Thou the Spring of all my com- fort, More than life to me, 
[V: S1V2] E3/2 E/ F3/4 =E/4 F3/4 D/4 | C2 E2 | E3/2 E/ E E | E3 x |
[V: S2V1] A,3/2 A,/ A,3/4 A,/4 D3/4 A,/4 | A,2 C2 | D3/2 D/ C G, | A,3 z |
[V: S2V2] A,,3/2 C,/ D,3/4 D,/4 D,3/4 D,/4 | A,,2 A,,2 | E,3/2 E,/ E, E, | A,,3 x |
% 5
[V: S1V1] c3/2 B/ A3/4 G/4 A3/4 F/4 | E2 A2 | B3/2 A/ !wedge!c !wedge!B | A3 z |
w: While on o- thers Thou art call- ing, Do not pass me by. 
w: Kneel- ing there in deep con- tri- tion; Help my un- be- lief. 
w: Heal my wound- ed, bro- ken spi- rit, Save me by Thy grace. 
w: Whom have I on earth be- side Thee? Whom in Heav'n but Thee? 
[V: S1V2] E3/2 E/ F3/4 =E/4 F3/4 D/4 | C2 E2 | E3/2 E/ E D | C3 x |
[V: S2V1] A,3/2 A,/ A,3/4 A,/4 D3/4 A,/4 | A,2 C2 | D3/2 C/ A, G, | A,3 z |
[V: S2V2] A,,3/2 C,/ D,3/4 D,/4 D,3/4 D,/4 | A,,2 A,,2 | E,3/2 E,/ E, E, | A,,3 x |
% 9
[V: S1V1] e2 c2 | (B3/2 A/) F2 | E A c A | B3 z | 
w: Sa- vior, Sa- * vior, Hear my hum- ble cry; 
[V: S1V2] A2 A2 | F2 D2 | C C E E | E3 x |
[V: S2V1] C2 E2 | D2 A,2 | A, A, A, A, | G,3 z |
[V: S2V2] A,2 A,2 | D,2 D,2 | A,, A,, A,, C, | E,3 x |
% 13
[V: S1V1] !sintro!c3/2 B/ A3/4 G/4 A3/4 F/4 | E2 A2 | B3/2 A/ !wedge!c !wedge!B | A3 z !eintro!|]
w: While on o- thers Thou art call- ing, Do not pass me by.
[V: S1V2] E3/2 E/ F3/4 =E/4 F3/4 D/4 | C2 E2 | E3/2 E/ E D | C3 x |]
[V: S2V1] A,3/2 A,/ A,3/4 A,/4 D3/4 A,/4 | A,2 C2 | D3/2 C/ A, G, | A,3 z |]
[V: S2V2] A,,3/2 C,/ D,3/4 D,/4 D,3/4 D,/4 | A,,2 A,,2 | E,3/2 E,/ E, E, | A,,3 x |]
% 9
